dist/images/assets/landing-icon.svg

<svg width="13" height="9" viewBox="0 0 13 9" xmlns="http://www.w3.org/2000/svg"><title>Shape</title><path d="M6.5 0C4.1 0 1.8 1.7 0 4.5 1.8 7.3 4.1 9 6.5 9c2.4 0 4.7-1.7 6.5-4.5C11.2 1.7 8.9 0 6.5 0zm0 7.5c-1.8 0-3.2-1.3-3.2-3s1.5-3 3.2-3h.4c-.3.3-.4.7-.4 1.1 0 1 .9 1.9 2 1.9.4 0 .9-.1 1.2-.4v.4c0 1.7-1.4 3-3.2 3z" fill="#FFF" fill-rule="evenodd"/></svg>

<?xml version="1.0" encoding="UTF-8" standalone="no"?>
<svg width="13px" height="9px" viewBox="0 0 13 9" version="1.1" xmlns="http://www.w3.org/2000/svg" xmlns:xlink="http://www.w3.org/1999/xlink" xmlns:sketch="http://www.bohemiancoding.com/sketch/ns">
    <!-- Generator: Sketch 3.3.2 (12043) - http://www.bohemiancoding.com/sketch -->
    <title>Shape</title>
    <desc>Created with Sketch.</desc>
    <defs></defs>
    <g id="Page-1" stroke="none" stroke-width="1" fill="none" fill-rule="evenodd" sketch:type="MSPage">
        <path d="M6.5,0 C4.1,0 1.8,1.7 0,4.5 C1.8,7.3 4.1,9 6.5,9 C8.9,9 11.2,7.3 13,4.5 C11.2,1.7 8.9,0 6.5,0 L6.5,0 Z M6.5,7.5 C4.7,7.5 3.3,6.2 3.3,4.5 C3.3,2.8 4.8,1.5 6.5,1.5 L6.9,1.5 C6.6,1.8 6.5,2.2 6.5,2.6 C6.5,3.6 7.4,4.5 8.5,4.5 C8.9,4.5 9.4,4.4 9.7,4.1 L9.7,4.5 C9.7,6.2 8.3,7.5 6.5,7.5 L6.5,7.5 Z" id="Shape" fill="#FFFFFF" sketch:type="MSShapeGroup"></path>
    </g>
</svg>
